status-logo-symbol.svg

<?xml version="1.0" encoding="UTF-8"?>
<svg width="124px" height="124px" viewBox="0 0 124 124" version="1.1" xmlns="http://www.w3.org/2000/svg" xmlns:xlink="http://www.w3.org/1999/xlink">
    <!-- Generator: Sketch 50.2 (55047) - http://www.bohemiancoding.com/sketch -->
    <title>symbol</title>
    <desc>Created with Sketch.</desc>
    <defs></defs>
    <g id="Page-1" stroke="none" stroke-width="1" fill="none" fill-rule="evenodd">
        <g id="Artboard" transform="translate(-56.000000, -194.000000)" fill="#4360DF">
            <g id="Group-2" transform="translate(0.000000, 149.000000)">
                <g id="Group" transform="translate(56.000000, 45.000000)">
                    <path d="M72.457502,61.428843 C65.0269015,61.8563547 60.3698519,60.1300872 52.9388898,60.5575988 C51.1558927,60.6599709 49.2651638,60.9195058 47.4687907,61.3538663 C48.5641843,47.6507849 58.2911347,35.6617151 71.5186449,34.9007733 C79.6354029,34.4336105 87.7474612,39.4310988 88.1885108,47.5430058 C88.6212455,55.5157733 82.5235545,60.8495756 72.457502,61.428843 M52.503263,89.4614942 C44.7274146,89.8987384 36.9562659,85.2217035 36.5340152,77.6295872 C36.1189948,70.1679593 41.9607324,65.1762384 51.6034496,64.6340988 C58.7217003,64.2339826 63.1835312,65.8495872 70.3021434,65.4494709 C72.0103067,65.3535872 73.821502,65.1106337 75.5423184,64.7040291 C74.4931988,77.528657 65.1747615,88.7492151 52.503263,89.4614942 M61.9999277,0.180052326 C27.7582134,0.180052326 -7.23032067e-05,27.8580058 -7.23032067e-05,61.9998198 C-7.23032067e-05,96.1419942 27.7582134,123.819587 61.9999277,123.819587 C96.241642,123.819587 123.999928,96.1419942 123.999928,61.9998198 C123.999928,27.8580058 96.241642,0.180052326 61.9999277,0.180052326" id="symbol"></path>
                </g>
            </g>
        </g>
    </g>
</svg>

<svg width="124" height="124" xmlns="http://www.w3.org/2000/svg"><path d="M72.458 61.429c-7.431.427-12.088-1.299-19.52-.871a31.245 31.245 0 0 0-5.47.796C48.565 47.65 58.292 35.662 71.519 34.9c8.117-.467 16.23 4.53 16.67 12.642.433 7.973-5.664 13.307-15.73 13.886M52.503 89.46c-7.776.438-15.547-4.24-15.969-11.831-.415-7.462 5.427-12.454 15.07-12.996 7.118-.4 11.58 1.216 18.698.815a30.589 30.589 0 0 0 5.24-.745C74.493 77.528 65.175 88.748 52.503 89.46M62 .181C27.758.18 0 27.857 0 62s27.758 61.82 62 61.82c34.242 0 62-27.678 62-61.82C124 27.858 96.242.18 62 .18" fill="#4360DF" fill-rule="evenodd"/></svg>
